X: 17
T: My Darling Asleep
Z: Fernando Durbán Galnares
S: https://thesession.org/tunes/76#setting48422
R: jig
M: 6/8
L: 1/8
K: Dmaj
|:e|"D"fdd "A"cAA|"G"BAG "D"A2G|"D"FAA def|"G"gfg "A"eag|
"D"fdd "A"cAA|"G"BAG "D"A2G|"D"FAA "G"def|"A"gec "D"d2:|
|:A|"D"FAA "G"BAG|"D"FAA "G"BAG|"D"FAA def|"G"gfg "A"eag|
"D"fdd "A"cAA|"G"BAG "D"A2G|"D"FAA "G"def|"A"gec "D"d2:|

